X:1
T: Kitty in the Lane
P:Ryan's version
R:Reel
Q: 232
K:G
M:4/4
L:1/8
fe|d^c AB =cB cA|GE DE c2 ce|d^c AB =cB cA|GE cE ED D2|
d^c AB =cB cA|GE DE c2 ce|d^c AB cB cA|GF cE ED D2|
|:Ad de f2 ed|cd ef g2 fe|dc de f2 ed|fa eg fd d2|
dc de f2 ed|cd ef g2 fg|af ge fd ed|cd eg fd ec:|
d^c AB =cB cA|GE DE c2 ce|d^c AB =cB cA|GE cE ED D2|
d^c AB =cB cA|GE DE c2 ce|d^c AB cB cA|GF cE ED D2||
